X:1
T:Does Thy Savior Pilot Thee?
T:Does Thy Savior Pilot Thee?
T:William T. Hadley
T:William T. Hadley, 1896
T:Public Domain Courtesy of the Cyber Hymnal™
C:William T. Hadley
Z:Public Domain
Z:Courtesy of the Cyber Hymnal™
%%score ( 1 2 ) ( 3 4 )
L:1/8
Q:1/4=110
M:6/8
K:F
V:1 treble 
V:2 treble 
V:3 bass 
V:4 bass 
V:1
 C | [FA]2 [FA] [FA]2 [FA] | [F-Ac-]3 [FAc]2 [FA]/[FA]/ | [FB]2 [FB] F2 [FG] | [FA]3- [FA]2 C | %5
w: 1.~The|storm- y winds may|blow, * And with|fu- ry lash life’s|sea; * There’s|
w: 2.~How|sad to drift a-|lone, * Tossed by|ev- ery pass- ing|wave! * There|
w: 3.~A|voice says, “Peace, be|still,” * And sweet|rest comes in- to|life; * No|
 [FA]2 [FA] [FA]2 [FA] | [^Fc]2 [GB] .[GB]2 .[Gc]/[GB]/ | [FA]2 [DF] [CG]2 [CE] | [CF]3- [CF]2 || %9
w: peace with- in my|soul to- night. For my|Sav- ior dwells with|me. *|
w: is a pi- lot,|sin sick soul; Christ a-|lone thy bark can|save. *|
w: long- er left to|fight a- lone, He will|guide thee through the|strife. *|
[M:4/4]"^Refrain" [_EF]>[EF] | [D-FB-]4 [DFB]>[DFB] [DF]>[DG] | [FA]4 F2 [FA]>[GB] | %12
w: |||
w: He will|bring * thee peace and|com- fort, Sail- or,|
w: |||
 [Ac]4- [Ac]>A [DF]>[DA] | [EG]6 [FA]>[GB] | [Ac]4- [Ac]>[FA] G>F | G2 .F4 F>G | %16
w: ||||
w: on * a storm- y|sea; Do you|hope * to reach the|ha- ven? Does thy|
w: ||||
 [CFA]3 [DFB] A2 G2 | [CF]- [CF]4 |] %18
w: ||
w: Sav- ior pi- lot|thee? *|
w: ||
V:2
 C | x6 | x6 | x6 | x5 C | x6 | x6 | x6 | x5 ||[M:4/4] x2 | x8 | x8 | x8 | x8 | x8 | x8 | x8 | %17
 x5 |] %18
V:3
 [F,A,] | [F,C]2 [F,C] [F,C]2 [F,C] | [F,C]3- [F,C]2 [F,_E]/[F,E]/ | [F,D]2 D [F,D]2 _D | %4
 [F,C]3- [F,C]2 A, | [F,C]2 [F,C] [F,C]2 [F,C] | [A,_E]2 [G,D] .[G,D]2 .[_E,C]/[E,C]/ | %7
 [F,C]2 [D,=B,] [C,_B,]2 [C,G,] | [F,A,]3- [F,A,]2 ||[M:4/4] [F,A,]2 | %10
 [B,,-F,B,-]4 [B,,F,B,]2 [B,,B,]>[B,,B,] | [F,C]4 [F,A,]2 [F,C]2 | F4- F>C =B,2 | [C,C]6 [F,C]2 | %14
 [F,F]4- [F,F]>[F,C] [F,A,]2 | .[B,,B,]2 [B,,B,]4 [B,,B,]2 | [C,C]4 C2 B,2 | [F,,A,]- [F,,A,]4 |] %18
V:4
 x | x6 | x6 | x5 _D | x5 A, | x6 | x6 | x6 | x5 ||[M:4/4] x2 | x8 | x8 | x8 | x8 | x8 | x8 | x8 | %17
 x5 |] %18

